static/assets/images/networks/metis-mono.svg

<svg width="232" height="256" viewBox="0 0 232 256" fill="none" xmlns="http://www.w3.org/2000/svg">
<path d="M152.887 248.616C153.147 248.817 153.401 249.012 153.662 249.2C154.039 249.486 154.462 249.85 154.397 250.324C154.332 250.798 153.864 251.019 153.441 251.182C137.869 257.138 117.37 256.541 101.083 254.826C92.6559 253.941 84.3174 252.359 76.153 250.097C70.1532 248.434 58.173 246.427 53.9498 241.607C50.8848 238.105 58.1534 232.837 59.9755 230.44C63.7432 225.49 66.5869 219.345 69.2484 213.746C74.8317 201.995 81.0203 187.184 82.3153 174.186C82.5496 172.763 83.0051 172.438 84.4367 172.536C84.8488 172.577 85.2575 172.646 85.6599 172.744C86.6665 172.958 87.6974 173.036 88.7249 172.978C91.6077 172.646 94.4318 171.958 97.2885 171.581C102.859 170.931 123.487 164.78 119.934 156.049C119.803 155.731 119.577 155.462 119.287 155.276C118.998 155.09 118.658 154.997 118.314 155.01C117.689 154.957 117.084 154.764 116.544 154.445C116.169 154.205 115.737 154.071 115.292 154.057C114.848 154.044 114.408 154.151 114.019 154.367C112.965 154.964 111.774 154.717 110.661 154.925C108.64 155.346 106.657 155.933 104.733 156.679C102.546 157.459 100.445 158.414 98.2844 159.226C97.4586 159.499 96.6778 159.893 95.9676 160.395C95.7256 160.592 95.4501 160.744 95.1542 160.843C93.4493 161.33 92.1023 162.519 90.482 163.175C89.8463 163.411 89.277 163.796 88.8227 164.299C88.6305 164.545 88.3799 164.739 88.0937 164.864C87.5276 165.072 86.9484 165.455 86.3237 164.981C84.0917 163.286 90.879 150.794 91.8226 148.553C92.6685 146.507 93.9372 145.305 96.2408 146.123C96.926 146.364 97.6491 146.481 98.3755 146.468C100.093 146.435 101.818 146.383 103.529 146.468C106.325 146.519 109.116 146.24 111.846 145.636C112.761 145.459 113.687 145.34 114.618 145.279C116.213 145.104 117.76 144.623 119.173 143.863C119.412 143.766 119.658 143.686 119.908 143.623C121.21 143.226 122.511 143.044 123.591 142.07C123.963 141.785 124.391 141.582 124.847 141.472C127.45 140.673 129.402 138.919 131.426 137.263C131.769 136.978 132.011 136.591 132.116 136.157C132.22 135.724 132.181 135.269 132.005 134.86C131.927 134.415 131.697 134.012 131.354 133.718C131.011 133.424 130.576 133.258 130.124 133.249C127.998 133.217 125.872 133.325 123.76 133.573C120.507 134.002 117.455 135.275 114.129 135.197C112.562 135.251 111.018 135.592 109.575 136.204C107.928 136.795 106.243 136.932 104.583 137.308C103.147 137.521 101.759 137.985 100.484 138.679C95.278 141.531 99.0848 134.314 99.9763 132.631C101.982 128.84 104.241 125.188 106.737 121.699C107.144 121.032 107.709 120.476 108.384 120.081C109.118 119.804 109.907 119.706 110.687 119.796C124.031 120.13 137.163 116.413 148.345 109.136C149.647 108.291 151.039 107.025 150.694 105.537C150.297 103.809 148.007 103.471 146.237 103.588C136.06 104.105 126.044 106.332 116.609 110.175C115.841 109.656 116.414 108.467 117.032 107.772L127.008 96.5338C127.706 95.6588 128.541 94.902 129.48 94.2927C131.465 93.1429 133.925 93.4157 136.216 93.5846C147.501 94.3642 158.752 91.6416 168.427 85.7896C169.806 84.9516 171.329 83.6524 171.03 82.0739C170.626 80.0472 167.828 79.8393 165.778 80.1251L144.076 83.1132C143.863 83.1703 143.639 83.1703 143.426 83.1132C142.541 82.73 143.426 81.4373 144.285 81.0021C157.066 74.5527 169.242 66.9719 180.667 58.3509C182.352 57.0517 184.161 54.7782 182.808 53.1542C181.838 51.9979 179.997 52.3162 178.552 52.7774C168.018 56.1392 158.243 61.5234 149.777 68.6274C147.35 70.6671 144.929 72.9017 141.89 73.8241C145.45 66.3598 148.49 58.659 150.987 50.7767C151.417 49.4385 151.736 47.7496 150.681 46.8337C149.25 45.5799 147.115 47.087 145.873 48.5291C136.541 59.2993 128.251 71.6805 126.045 85.7506C125.765 87.5175 125.576 89.3363 124.743 90.9473C124.12 92.0714 123.353 93.1088 122.459 94.0328L115.704 101.653C115.177 102.244 114.325 102.88 113.694 102.413C116.026 92.9543 116.808 83.1813 116.01 73.4733C115.9 72.1157 115.62 70.5372 114.416 69.8811C112.705 68.9457 110.739 70.6217 109.659 72.2456C106.145 77.5268 104.609 83.9058 104.102 90.2263C103.594 96.5468 104.05 102.9 104.199 109.24C104.31 113.897 103.77 117.684 101.46 121.712C100.809 122.862 97.8483 129.507 95.9416 128.76C95.7445 128.686 95.5774 128.549 95.4666 128.371C95.3559 128.192 95.308 127.981 95.33 127.773V124.525C95.2979 122.715 95.1412 120.909 94.8614 119.12C94.458 116.877 94.2166 114.609 94.1391 112.332C94.1352 109.369 93.5698 106.433 92.4731 103.679C92.2323 103.03 92.1284 102.38 91.9007 101.731C91.6258 100.91 91.1023 100.195 90.4029 99.6843C89.7036 99.1734 88.8628 98.892 87.9963 98.8788C87.501 98.8534 87.0071 98.9546 86.5618 99.1729C86.1166 99.3911 85.7346 99.7192 85.4518 100.126C84.448 101.331 83.9059 102.853 83.9225 104.42C84.0201 109.461 84.0137 114.501 84.0528 119.542C84.0341 119.748 84.0451 119.956 84.0853 120.159C84.8467 123.284 84.801 126.538 85.634 129.65C86.07 131.267 85.7512 132.963 86.1612 134.593C86.3435 135.719 86.6043 136.83 86.942 137.919C87.6968 139.816 87.8792 141.849 88.3021 143.817C89.0114 147.117 85.4518 152.658 84.2675 155.724C82.8033 159.544 81.7816 157.257 80.5127 154.62C79.3089 152.119 78.3459 149.514 77.2592 146.942C75.307 142.278 73.2636 137.38 69.4113 133.95C68.8657 133.464 68.2082 133.121 67.4974 132.951C66.7865 132.781 66.0445 132.79 65.3377 132.976C64.8265 133.072 64.354 133.314 63.9776 133.673C63.6011 134.031 63.3368 134.491 63.2164 134.996C62.7884 136.163 62.7138 137.431 63.0016 138.64C63.4116 140.173 63.7302 141.739 64.0816 143.285C64.0943 143.335 64.1143 143.383 64.1404 143.428C65.4419 145.221 65.7346 147.455 66.8083 149.339C67.1401 149.924 67.4135 150.547 67.6868 151.158C68.6064 153.354 69.7791 155.436 71.1813 157.361C71.9296 158.342 72.5933 159.414 73.2375 160.46C74.1485 161.935 75.3785 163.123 76.3807 164.5C76.9728 165.319 77.9617 165.644 78.6775 166.332C79.2394 166.802 79.6337 167.44 79.8015 168.152C79.9692 168.864 79.9015 169.611 79.6083 170.282C79.5307 170.518 79.4395 170.751 79.335 170.977C78.5139 172.547 78.0033 174.261 77.8316 176.024C77.6611 177.257 77.3579 178.468 76.9271 179.636C76.2765 181.447 75.9058 183.346 75.8276 185.268C75.7947 186.203 75.6461 187.13 75.3851 188.029C74.9817 189.503 74.591 189.834 73.0487 189.665C71.555 189.479 70.0971 189.074 68.7215 188.464C63.5612 186.177 58.8824 182.942 53.7091 180.669C51.5031 179.701 49.2647 179.084 47.345 177.791C45.6271 176.635 44.4687 174.543 42.6987 173.575C42.5629 173.494 42.4452 173.386 42.3534 173.257C42.2616 173.129 42.1974 172.983 42.1649 172.828C42.1378 172.621 42.0496 172.426 41.9113 172.269C40.3365 171.035 39.959 169.021 38.8463 167.514C38.7083 167.358 38.6003 167.177 38.5275 166.982C38.0199 164.871 36.9721 162.948 36.3084 160.895C35.9763 159.594 35.489 158.338 34.8571 157.153C34.0242 155.796 33.7575 154.152 32.8465 152.788C32.2374 151.757 31.2543 150.998 30.1005 150.671C28.4308 150.12 26.8599 149.306 25.4476 148.261C24.7524 147.697 24.2762 146.909 24.1007 146.033C23.9032 145.139 23.517 144.297 22.9683 143.564C22.6185 143.103 22.3946 142.559 22.3177 141.986C22.2402 141.325 22.1027 140.673 21.9076 140.037C20.7037 137.393 20.6583 134.502 20.0857 131.722C20.0728 131.619 20.0465 131.519 20.0076 131.423C18.9013 129.812 17.9187 128.058 15.96 127.305C15.5654 127.184 15.2105 126.959 14.9319 126.655C14.7557 126.461 14.531 126.318 14.281 126.24C12.4521 125.694 10.7927 124.693 9.45925 123.329C7.87146 121.881 5.97134 120.634 5.64597 118.23C5.64373 118.177 5.62807 118.126 5.60043 118.081C3.64823 115.697 4.12311 112.689 3.48539 109.967C3.32921 109.318 3.30964 108.629 3.15997 107.973C2.88667 106.797 2.50937 105.693 1.30552 105.063C0.868805 104.838 0.511192 104.486 0.280886 104.053C0.05058 103.62 -0.0413289 103.127 0.0171384 102.64C0.101734 100.899 0.166613 99.1906 1.59172 97.9109C1.63076 97.9109 1.67629 97.8395 1.6828 97.794C2.04721 95.6438 3.63508 94.0459 4.24027 92.0062C4.55912 90.9473 4.61785 89.9859 3.64826 89.1869C3.51209 89.0831 3.39761 88.9533 3.31177 88.8053C3.22593 88.6572 3.17033 88.4937 3.14796 88.3241C3.12559 88.1545 3.13696 87.9822 3.18148 87.817C3.226 87.6518 3.30268 87.4971 3.40728 87.3616C4.27926 86.0624 4.10351 84.7243 3.75863 83.3211C3.30222 81.2407 3.28468 79.0882 3.70676 77.0006C3.92732 76.2515 4.07965 75.4841 4.16215 74.7076C4.18044 74.5004 4.22876 74.2968 4.30541 74.1034C5.27362 72.0759 6.38937 70.1219 7.64369 68.2572C8.6328 67.0034 9.90828 65.9641 10.5525 64.444C10.6888 64.1707 10.9042 63.9444 11.1708 63.7945C12.4722 63.015 13.3898 61.7612 14.6001 60.8583C15.1041 60.4142 15.6438 60.0122 16.2139 59.6566C17.2681 59.1044 17.3916 58.4808 16.7474 57.5324C15.9861 56.4021 16.1747 55.7266 17.4371 55.1939C18.1813 54.8229 18.9681 54.5436 19.7799 54.3624C20.3289 54.2927 20.8387 54.042 21.2289 53.6501C21.6191 53.2583 21.8673 52.7478 21.9338 52.1993C22.3633 50.1596 23.8209 48.7759 24.9596 47.1974C26.5539 44.9953 28.8641 45.8983 30.7773 44.5991C32.8466 43.2479 33.4256 40.734 36.1847 39.5972C38.5469 38.6293 41.1044 38.1941 43.434 37.1612C47.6768 35.2709 50.7742 31.6008 54.0279 28.2489C67.6933 13.8735 87.9052 0.264578 108.481 0.00474252C114.403 -0.0732083 120.279 0.823169 126.129 1.70661C138.896 3.65538 152.158 6.90334 164.997 7.63738C166.989 7.85174 168.765 8.69623 170.633 9.30035C180.771 12.5158 186.498 18.7259 191.053 28.2878C194.547 35.6282 198.172 42.9037 202.05 50.0492C204.23 54.0636 207.679 58.091 208.076 62.8136C208.291 65.373 207.211 66.841 206.482 69.1341C205.616 71.8299 205.571 74.857 205.525 77.6567C205.497 79.2173 206.062 80.7307 207.106 81.892C209.215 84.2371 210.965 86.8874 213.269 89.0765C214.121 89.882 214.616 91.0253 215.384 91.9347C219.119 96.3974 225.431 99.7688 230.051 103.283C230.717 103.677 231.215 104.301 231.45 105.037C231.502 105.615 231.365 106.193 231.06 106.687C228.88 110.812 223.902 112.423 220.212 115.307C219.794 115.55 219.473 115.929 219.303 116.382C219.134 116.834 219.126 117.331 219.282 117.788C219.802 120.828 222.379 123.258 222.054 126.324C221.997 126.844 221.752 127.324 221.364 127.675C220.55 128.481 219.737 129.28 218.943 130.105C218.65 130.383 218.415 130.716 218.252 131.085C218.088 131.455 217.999 131.852 217.989 132.256C217.98 132.66 218.05 133.061 218.195 133.438C218.341 133.814 218.56 134.158 218.839 134.45C218.872 134.483 218.904 134.522 218.943 134.554C219.548 135.204 220.193 135.808 220.798 136.451C222.028 137.75 222.047 138.64 220.85 139.978C219.75 141.213 218.572 142.388 217.551 143.707C217.08 144.318 216.748 145.023 216.578 145.775C216.409 146.527 216.405 147.306 216.568 148.059C216.919 150.45 217.83 152.73 217.694 155.25C217.538 158.433 216.659 162.617 214.154 164.799C212.371 166.358 209.872 166.748 207.523 167.014C202.239 167.66 196.94 168.19 191.625 168.606C184.383 169.171 173.964 166.871 169.917 174.244C168.615 176.583 167.965 179.214 167.314 181.792C164.329 193.07 160.462 204.097 155.75 214.772C152.497 222.099 144.987 231.778 146.562 240.139C147.219 243.692 149.998 246.375 152.887 248.616Z" fill="black"/>
</svg>

<svg xmlns="http://www.w3.org/2000/svg" fill="none" viewBox="0 0 232 256"><path fill="#000" d="M152.887 248.616c.26.201.514.396.775.584.377.286.8.65.735 1.124s-.533.695-.956.858c-15.572 5.956-36.071 5.359-52.358 3.644a153.4 153.4 0 0 1-24.93-4.729c-6-1.663-17.98-3.67-22.203-8.49-3.065-3.502 4.203-8.77 6.025-11.167 3.768-4.95 6.612-11.095 9.273-16.694 5.584-11.751 11.772-26.562 13.067-39.56.235-1.423.69-1.748 2.122-1.65q.618.061 1.223.208c1.007.214 2.037.292 3.065.234 2.883-.332 5.707-1.02 8.564-1.397 5.57-.65 26.198-6.801 22.645-15.532a1.681 1.681 0 0 0-1.62-1.039 4.2 4.2 0 0 1-1.77-.565 2.47 2.47 0 0 0-2.525-.078c-1.054.597-2.245.35-3.358.558a37.6 37.6 0 0 0-5.928 1.754c-2.187.78-4.288 1.735-6.449 2.547a8.8 8.8 0 0 0-2.316 1.169 2.6 2.6 0 0 1-.814.448c-1.705.487-3.052 1.676-4.672 2.332a4.2 4.2 0 0 0-1.66 1.124 1.9 1.9 0 0 1-.728.565c-.566.208-1.146.591-1.77.117-2.232-1.695 4.555-14.187 5.499-16.428.846-2.046 2.114-3.248 4.418-2.43a6.1 6.1 0 0 0 2.135.345c1.717-.033 3.442-.085 5.153 0a35.5 35.5 0 0 0 8.317-.832 22 22 0 0 1 2.772-.357 12.5 12.5 0 0 0 4.555-1.416q.36-.145.735-.24c1.302-.397 2.603-.579 3.683-1.553a3.4 3.4 0 0 1 1.256-.598c2.603-.799 4.555-2.553 6.579-4.209a2.063 2.063 0 0 0 .579-2.403 1.946 1.946 0 0 0-1.881-1.611 48 48 0 0 0-6.364.324c-3.253.429-6.305 1.702-9.631 1.624a12.8 12.8 0 0 0-4.554 1.007c-1.647.591-3.332.728-4.992 1.104a12.4 12.4 0 0 0-4.099 1.371c-5.206 2.852-1.4-4.365-.508-6.048a96 96 0 0 1 6.761-10.932 4.7 4.7 0 0 1 1.647-1.618 4.9 4.9 0 0 1 2.303-.285 66 66 0 0 0 37.658-10.66c1.302-.845 2.694-2.111 2.349-3.599-.397-1.728-2.687-2.066-4.457-1.949a90.8 90.8 0 0 0-29.628 6.587c-.768-.519-.195-1.708.423-2.403l9.976-11.238a10.4 10.4 0 0 1 2.472-2.241c1.985-1.15 4.445-.877 6.736-.708a54.93 54.93 0 0 0 32.211-7.795c1.379-.838 2.902-2.138 2.603-3.716-.404-2.027-3.202-2.235-5.252-1.949l-21.702 2.988a1.25 1.25 0 0 1-.65 0c-.885-.383 0-1.676.859-2.11a239.6 239.6 0 0 0 36.382-22.652c1.685-1.3 3.494-3.573 2.141-5.197-.97-1.156-2.811-.838-4.256-.377a84.9 84.9 0 0 0-28.775 15.85c-2.427 2.04-4.848 4.275-7.887 5.197 3.56-7.464 6.6-15.165 9.097-23.047.43-1.339.749-3.027-.306-3.943-1.431-1.254-3.566.253-4.808 1.695-9.332 10.77-17.622 23.151-19.828 37.222-.28 1.766-.469 3.585-1.302 5.196a14.7 14.7 0 0 1-2.284 3.086l-6.755 7.62c-.527.591-1.379 1.227-2.01.76a90 90 0 0 0 2.316-28.94c-.11-1.357-.39-2.936-1.594-3.592-1.711-.935-3.677.74-4.757 2.365-3.514 5.28-5.05 11.66-5.557 17.98s-.052 12.674.097 19.014c.111 4.657-.429 8.444-2.739 12.472-.651 1.15-3.612 7.795-5.518 7.048a.949.949 0 0 1-.612-.987v-3.248a39.5 39.5 0 0 0-.469-5.405 47.5 47.5 0 0 1-.722-6.788 23.5 23.5 0 0 0-1.666-8.653c-.24-.649-.345-1.299-.572-1.948a4.187 4.187 0 0 0-3.904-2.852 2.92 2.92 0 0 0-2.545 1.247 6.6 6.6 0 0 0-1.53 4.294c.098 5.041.092 10.081.13 15.122q-.027.31.033.617c.762 3.125.716 6.379 1.549 9.491.436 1.617.117 3.313.527 4.943q.274 1.69.781 3.326c.755 1.897.937 3.93 1.36 5.898.71 3.3-2.85 8.841-4.035 11.907-1.464 3.82-2.485 1.533-3.754-1.104-1.204-2.501-2.167-5.106-3.254-7.678-1.952-4.664-3.995-9.562-7.848-12.992a4.42 4.42 0 0 0-4.073-.974 2.69 2.69 0 0 0-2.122 2.02 6.33 6.33 0 0 0-.214 3.644c.41 1.533.728 3.099 1.08 4.645a.6.6 0 0 0 .058.143c1.302 1.793 1.595 4.027 2.668 5.911.332.585.605 1.208.879 1.819a30.6 30.6 0 0 0 3.494 6.203c.749.981 1.412 2.053 2.057 3.099.91 1.475 2.14 2.663 3.143 4.04.592.819 1.58 1.144 2.296 1.832a3.385 3.385 0 0 1 .931 3.95 7 7 0 0 1-.273.695 13.8 13.8 0 0 0-1.503 5.047 17.3 17.3 0 0 1-.905 3.612 19 19 0 0 0-1.1 5.632 11.3 11.3 0 0 1-.442 2.761c-.403 1.474-.794 1.805-2.336 1.636a15.4 15.4 0 0 1-4.328-1.201c-5.16-2.287-9.839-5.522-15.012-7.795-2.206-.968-4.444-1.585-6.364-2.878-1.718-1.156-2.876-3.248-4.646-4.216a1.14 1.14 0 0 1-.534-.747 1.05 1.05 0 0 0-.254-.559c-1.575-1.234-1.952-3.248-3.065-4.755a1.7 1.7 0 0 1-.318-.532c-.508-2.111-1.556-4.034-2.22-6.087a16.8 16.8 0 0 0-1.45-3.742c-.834-1.357-1.1-3.001-2.011-4.365a4.67 4.67 0 0 0-2.747-2.117 16.5 16.5 0 0 1-4.652-2.41 3.84 3.84 0 0 1-1.347-2.228 6.4 6.4 0 0 0-1.133-2.469 3.35 3.35 0 0 1-.65-1.578 11 11 0 0 0-.41-1.949c-1.204-2.644-1.25-5.535-1.822-8.315a1.2 1.2 0 0 0-.078-.299c-1.107-1.611-2.09-3.365-4.048-4.118a2.3 2.3 0 0 1-1.028-.65 1.47 1.47 0 0 0-.651-.415 11.24 11.24 0 0 1-4.822-2.911c-1.588-1.448-3.488-2.695-3.813-5.099a.3.3 0 0 0-.046-.149c-1.952-2.384-1.477-5.392-2.115-8.114-.156-.649-.175-1.338-.325-1.994-.273-1.176-.65-2.28-1.854-2.91a2.4 2.4 0 0 1-1.288-2.423c.084-1.741.149-3.45 1.574-4.73.039 0 .084-.07.09-.116.365-2.15 1.953-3.748 2.558-5.788.32-1.059.378-2.02-.592-2.82a1.3 1.3 0 0 1-.24-1.824c.871-1.3.696-2.638.35-4.04A15.3 15.3 0 0 1 3.708 77q.331-1.127.455-2.293.028-.313.143-.605a46 46 0 0 1 3.339-5.846c.989-1.254 2.264-2.293 2.909-3.813.136-.273.351-.5.618-.65 1.301-.779 2.219-2.033 3.43-2.936a12 12 0 0 1 1.613-1.201c1.054-.553 1.178-1.176.533-2.125-.76-1.13-.572-1.805.69-2.338.744-.371 1.531-.65 2.343-.832a2.49 2.49 0 0 0 2.154-2.163c.43-2.04 1.887-3.423 3.026-5.002 1.594-2.202 3.904-1.299 5.817-2.598 2.07-1.351 2.649-3.865 5.408-5.002 2.362-.968 4.92-1.403 7.249-2.436 4.243-1.89 7.34-5.56 10.594-8.912C67.693 13.874 87.905.265 108.48.005c5.922-.078 11.798.818 17.648 1.702 12.767 1.948 26.029 5.196 38.868 5.93 1.992.215 3.768 1.06 5.636 1.663 10.138 3.216 15.865 9.426 20.42 18.988 3.494 7.34 7.119 14.616 10.997 21.761 2.18 4.015 5.629 8.042 6.026 12.765.215 2.559-.865 4.027-1.594 6.32-.866 2.696-.911 5.723-.957 8.523a6.17 6.17 0 0 0 1.581 4.235c2.109 2.345 3.859 4.995 6.163 7.185.852.805 1.347 1.948 2.115 2.858 3.735 4.462 10.047 7.834 14.667 11.348a3.15 3.15 0 0 1 1.399 1.754 2.68 2.68 0 0 1-.39 1.65c-2.18 4.125-7.158 5.736-10.848 8.62a2.094 2.094 0 0 0-.93 2.481c.52 3.04 3.097 5.47 2.772 8.536-.057.52-.302 1-.69 1.351-.814.806-1.627 1.605-2.421 2.43a3.074 3.074 0 0 0-.748 3.333c.146.376.365.72.644 1.012.033.033.065.072.104.104.605.65 1.25 1.254 1.855 1.897 1.23 1.299 1.249 2.189.052 3.527-1.1 1.235-2.278 2.41-3.299 3.729a5.3 5.3 0 0 0-.983 4.352c.351 2.391 1.262 4.671 1.126 7.191-.156 3.183-1.035 7.367-3.54 9.549-1.783 1.559-4.282 1.949-6.631 2.215a367 367 0 0 1-15.898 1.592c-7.242.565-17.661-1.735-21.708 5.638-1.302 2.339-1.952 4.97-2.603 7.548a223 223 0 0 1-11.564 32.98c-3.253 7.327-10.763 17.006-9.188 25.367.657 3.553 3.436 6.236 6.325 8.477"/></svg>
